!!!OTL: ES HAT EINN SCHNEE GESCHNEIET
!!!ARE: Europa, Mitteleuropa, Deutschland, Schlesien
!!!SCT: E0424A
!!!YEM: Copyright 1995, estate of Helmut Schaffrath.
**kern
*ICvox
*Ivox
*M3/4
*k[f#]
*G:
{4d
=1
8g
8g
4b
4g
=2
4dd
4dd}
{8dd
8ee
=3
8dd
8cc
8b
8g
4a
=4
2g}
{4g
=5
8dd
8dd
4ee
4dd
=6
8cc
8cc
4a
8r}
{8f#
=7
8a
8a
4cc
4a
=8
8b
8b
4g}
{8dd
8ee
=9
8dd
8cc
8b
8g
4a
=10
2g}
==
!!!AGN: Liebes - Lied
!!!ONB: ESAC (Essen Associative Code) Database: ERK1
!!!AMT: simple triple
!!!AIN: vox
!!!EED: Helmut Schaffrath
!!!EEV: 1.0
*-
